X: 6
T:Mooncoin Jig
R:Jig
H:Tommy Peoples, 70"s studio bootleg
M:6/8
L:1/8
Q:3/8=120
K:D 
|:cBA AEA|AEA Bcd|~c2A Ace|dBG Bcd|
~c2A AEA|AEA Bcd|Ace gfe|dBG Bcd:||
:cde efg|faf gfe|~c2e efg|faA Bcd|
cde efg|afd bge|afd gec|dBG Bcd:|
|:cBA Aaf|ecA Bcd|~c2A ~g2e|dBG Bcd|
~c2A Aaa|Agg Aff|Aee efa|dBG Bcd:|
